icons/tag-percent.svg

<svg xmlns="http://www.w3.org/2000/svg" width="24" height="24" viewBox="0 0 24 24">
  <path d="M13,2 C13.2652165,2 13.5195704,2.10535684 13.7071068,2.29289322 L13.7071068,2.29289322 L21.2928932,9.87867966 C22.4644661,11.0502525 22.4644661,12.9497475 21.2928932,14.1213203 L21.2928932,14.1213203 L14.1213203,21.2928932 C12.9497475,22.4644661 11.0502525,22.4644661 9.87867966,21.2928932 L9.87867966,21.2928932 L2.29289322,13.7071068 C2.10535684,13.5195704 2,13.2652165 2,13 L2,13 L2,5 C2,3.34314575 3.34314575,2 5,2 L5,2 Z M15.7071068,14.2928932 C15.3165825,13.9023689 14.6834175,13.9023689 14.2928932,14.2928932 C13.9023689,14.6834175 13.9023689,15.3165825 14.2928932,15.7071068 C14.6834175,16.0976311 15.3165825,16.0976311 15.7071068,15.7071068 C16.0976311,15.3165825 16.0976311,14.6834175 15.7071068,14.2928932 Z M15.7071068,8.29289322 C15.3165825,7.90236893 14.6834175,7.90236893 14.2928932,8.29289322 L14.2928932,8.29289322 L8.29289322,14.2928932 L8.20970461,14.3871006 C7.90467972,14.7793918 7.93240926,15.3466228 8.29289322,15.7071068 C8.68341751,16.0976311 9.31658249,16.0976311 9.70710678,15.7071068 L9.70710678,15.7071068 L15.7071068,9.70710678 L15.7902954,9.61289944 C16.0953203,9.22060824 16.0675907,8.65337718 15.7071068,8.29289322 Z M9.70710678,8.29289322 C9.31658249,7.90236893 8.68341751,7.90236893 8.29289322,8.29289322 C7.90236893,8.68341751 7.90236893,9.31658249 8.29289322,9.70710678 C8.68341751,10.0976311 9.31658249,10.0976311 9.70710678,9.70710678 C10.0976311,9.31658249 10.0976311,8.68341751 9.70710678,8.29289322 Z"/>
</svg>

<svg xmlns="http://www.w3.org/2000/svg" viewBox="0 0 24 24">
  <path d="M13 2a1 1 0 0 1 .7.3l7.6 7.58a3 3 0 0 1 0 4.24l-7.18 7.17a3 3 0 0 1-4.24 0l-7.59-7.58A1 1 0 0 1 2 13V5a3 3 0 0 1 3-3zm2.7 12.3a1 1 0 1 0-1.4 1.4 1 1 0 0 0 1.4-1.4zm0-6a1 1 0 0 0-1.4 0l-6 6-.09.09a1 1 0 0 0 1.5 1.32l6-6 .08-.1a1 1 0 0 0-.08-1.32zm-6 0a1 1 0 1 0-1.4 1.4 1 1 0 0 0 1.4-1.4z"/>
</svg>
